X: 137019
Q: "Irish Jig."
M: 6/8
L: 1/8
K: A
vAB !segno!|:\
{AB}c2vE EFE | Edc BAB | {Ac}c2E EFG | AcB AFE |\
{AB}c2E EFE | Edc def | ecA BcB | AcB AFE :|
|:\


